fs/person_star_32_regular.svg

<svg viewBox="0 0 32 32" fill="none" xmlns="http://www.w3.org/2000/svg" height="1em" width="1em">
  <path d="M22 8.99998C22 12.866 18.866 16 15 16C11.134 16 8 12.866 8 8.99998C8 5.134 11.134 2 15 2C18.866 2 22 5.134 22 8.99998ZM20 8.99998C20 6.23857 17.7614 4 15 4C12.2386 4 10 6.23857 10 8.99998C10 11.7614 12.2386 14 15 14C17.7614 14 20 11.7614 20 8.99998ZM6.5 18C4.56696 18 2.99994 19.567 3 21.5001L3.00001 22C3.00003 24.3935 4.52264 26.4174 6.68492 27.7934C8.85906 29.177 11.8015 30 14.9999 30C15.7443 30 16.4749 29.9554 17.1851 29.8696C16.5434 29.3258 15.9789 28.6938 15.5103 27.9922C15.3414 27.9974 15.1712 28 14.9999 28C12.1232 28 9.56571 27.256 7.75867 26.1061C5.93978 24.9486 5.00001 23.4725 5.00001 22L5 21.5C4.99998 20.6716 5.67156 20 6.5 20H14.5121C14.7638 19.2879 15.1026 18.617 15.5156 18H6.5ZM30.5 23C30.5 27.1421 27.1421 30.5 23 30.5C18.8579 30.5 15.5 27.1421 15.5 23C15.5 18.8579 18.8579 15.5 23 15.5C27.1421 15.5 30.5 18.8579 30.5 23ZM22.2884 18.1384L21.3475 20.9656H18.3536C17.6227 20.9656 17.3235 21.9044 17.9196 22.3273L20.3262 24.0344L19.3974 26.8255C19.1685 27.5133 19.9517 28.0935 20.543 27.674L23 25.9311L25.457 27.674C26.0483 28.0935 26.8315 27.5133 26.6026 26.8255L25.6738 24.0344L28.0804 22.3273C28.6765 21.9044 28.3773 20.9656 27.6464 20.9656H24.6525L23.7116 18.1384C23.4839 17.4541 22.5161 17.4541 22.2884 18.1384Z" fill="#212121"/>
</svg>

<svg viewBox="0 0 32 32" fill="none" xmlns="http://www.w3.org/2000/svg" height="1em" width="1em">
  <path d="M22 9A7 7 0 1 1 8 9a7 7 0 0 1 14 0Zm-2 0a5 5 0 1 0-10 0 5 5 0 0 0 10 0ZM6.5 18A3.5 3.5 0 0 0 3 21.5v.5c0 2.393 1.523 4.417 3.685 5.793C8.859 29.177 11.802 30 15 30c.744 0 1.475-.045 2.185-.13a9.052 9.052 0 0 1-1.675-1.878c-.169.005-.339.008-.51.008-2.877 0-5.434-.744-7.241-1.894C5.939 24.95 5 23.472 5 22v-.5A1.5 1.5 0 0 1 6.5 20h8.012a8.969 8.969 0 0 1 1.004-2H6.5Zm24 5a7.5 7.5 0 1 1-15 0 7.5 7.5 0 0 1 15 0Zm-8.212-4.862-.94 2.828h-2.994c-.731 0-1.03.938-.434 1.361l2.406 1.707-.929 2.792c-.228.687.555 1.267 1.146.848L23 25.931l2.457 1.743c.591.42 1.374-.16 1.146-.848l-.93-2.792 2.407-1.707c.597-.423.297-1.361-.434-1.361h-2.994l-.94-2.828c-.228-.684-1.196-.684-1.424 0Z" fill="#212121"/>
</svg>
